X:266
T:The Mystery Inch
S:Olivia Hivon
R:jig
M:6/8
L:1/8
K:Amaj
F2a gec | ef2- fcB | ABc ecA | BcA cGA |
F2a gec | e2e ecB | ABc eag |1 bge cef :|2 fge cBA ||
FAc BAE | cBA FAc | Bce e2e | feB cAF |
DAc BAF | EAc BAF | GAe gbg | ece fcB |
AFE DcB | AFE cBA | FAc e2e | feB cAF |
DAc BAF | EAc BAF | GAe gbg | ece fcB ||
